packages/icons/plugins/Savings.svg

<svg width="37" height="36" viewBox="0 0 37 36" xmlns="http://www.w3.org/2000/svg">
<g>
        <path
            d="M14.0888 30.0442C11.5763 29.6606 9.3038 28.688 7.47668 27.3018C7.58557 27.4556 7.65914 27.6316 7.69212 27.8172L8.34479 31.7314C8.37771 31.9307 8.48028 32.1119 8.63424 32.2427C8.78821 32.3736 8.98359 32.4455 9.18563 32.4459H12.6399C12.843 32.4458 13.0395 32.3732 13.1939 32.2413C13.3484 32.1093 13.4507 31.9266 13.4825 31.7259L13.6934 30.4024C13.7089 30.3067 13.7565 30.2191 13.8284 30.154C13.9002 30.0889 13.9921 30.0502 14.0888 30.0442Z"
            fill="url(#paint0_radial_35_22374)"
        />
        <path
            d="M14.0888 30.0442C11.5763 29.6606 9.3038 28.688 7.47668 27.3018C7.58557 27.4556 7.65914 27.6316 7.69212 27.8172L8.34479 31.7314C8.37771 31.9307 8.48028 32.1119 8.63424 32.2427C8.78821 32.3736 8.98359 32.4455 9.18563 32.4459H12.6399C12.843 32.4458 13.0395 32.3732 13.1939 32.2413C13.3484 32.1093 13.4507 31.9266 13.4825 31.7259L13.6934 30.4024C13.7089 30.3067 13.7565 30.2191 13.8284 30.154C13.9002 30.0889 13.9921 30.0502 14.0888 30.0442Z"
            fill="url(#paint1_linear_35_22374)"
            fill-opacity="0.4"
        />
        <path
            d="M20.9987 30.0306L20.9078 30.0433C23.7885 29.5979 26.3537 28.3807 28.2927 26.6572C28.1818 26.759 28.0681 26.8563 27.9527 26.9527C27.7173 27.1475 27.559 27.4198 27.5064 27.7208L26.8373 31.7295C26.8044 31.9289 26.7018 32.1101 26.5479 32.2409C26.3939 32.3717 26.1985 32.4437 25.9965 32.444H22.5422C22.3391 32.4439 22.1426 32.3714 21.9882 32.2394C21.8337 32.1074 21.7314 31.9247 21.6996 31.7241L21.4851 30.3851C21.4767 30.3298 21.4574 30.2767 21.4283 30.2288C21.3993 30.181 21.361 30.1394 21.3158 30.1065C21.2706 30.0735 21.2193 30.0498 21.1649 30.0368C21.1104 30.0238 21.054 30.0217 20.9987 30.0306Z"
            fill="url(#paint2_radial_35_22374)"
        />
        <path
            d="M20.9987 30.0306L20.9078 30.0433C23.7885 29.5979 26.3537 28.3807 28.2927 26.6572C28.1818 26.759 28.0681 26.8563 27.9527 26.9527C27.7173 27.1475 27.559 27.4198 27.5064 27.7208L26.8373 31.7295C26.8044 31.9289 26.7018 32.1101 26.5479 32.2409C26.3939 32.3717 26.1985 32.4437 25.9965 32.444H22.5422C22.3391 32.4439 22.1426 32.3714 21.9882 32.2394C21.8337 32.1074 21.7314 31.9247 21.6996 31.7241L21.4851 30.3851C21.4767 30.3298 21.4574 30.2767 21.4283 30.2288C21.3993 30.181 21.361 30.1394 21.3158 30.1065C21.2706 30.0735 21.2193 30.0498 21.1649 30.0368C21.1104 30.0238 21.054 30.0217 20.9987 30.0306Z"
            fill="url(#paint3_linear_35_22374)"
            fill-opacity="0.4"
        />
        <path
            d="M7.6563 11.0328L10.7023 12.5509C10.8488 12.6239 10.84 12.8357 10.688 12.8963C9.39916 13.4105 8.31562 14.3351 7.60501 15.527L7.56652 15.5915C7.48053 15.7358 7.26483 15.7122 7.21204 15.5528L6.14823 12.3398C5.84613 11.4273 6.79609 10.6041 7.6563 11.0328Z"
            fill="url(#paint4_radial_35_22374)"
        />
        <path
            d="M7.6563 11.0328L10.7023 12.5509C10.8488 12.6239 10.84 12.8357 10.688 12.8963C9.39916 13.4105 8.31562 14.3351 7.60501 15.527L7.56652 15.5915C7.48053 15.7358 7.26483 15.7122 7.21204 15.5528L6.14823 12.3398C5.84613 11.4273 6.79609 10.6041 7.6563 11.0328Z"
            fill="url(#paint5_linear_35_22374)"
            fill-opacity="0.4"
        />
        <path
            d="M2.401 20.0495C2.401 19.2832 3.15126 18.6621 4.07676 18.6621H4.81554C5.74104 18.6621 6.4913 19.2832 6.4913 20.0495V21.9109C6.4913 22.6771 5.74104 23.2982 4.81554 23.2982H4.07676C3.15126 23.2982 2.401 22.6771 2.401 21.9109V20.0495Z"
            fill="url(#paint6_radial_35_22374)"
        />
        <path
            d="M2.401 20.0495C2.401 19.2832 3.15126 18.6621 4.07676 18.6621H4.81554C5.74104 18.6621 6.4913 19.2832 6.4913 20.0495V21.9109C6.4913 22.6771 5.74104 23.2982 4.81554 23.2982H4.07676C3.15126 23.2982 2.401 22.6771 2.401 21.9109V20.0495Z"
            fill="url(#paint7_linear_35_22374)"
            fill-opacity="0.4"
        />
        <path
            d="M31.3634 20.2054C31.3634 26.2731 25.2728 30.5772 17.7596 30.5772C10.2465 30.5772 4.15588 27.1719 4.15588 20.2054C4.15588 12.9228 10.2465 9.95801 17.7596 9.95801C25.2728 9.95801 31.3634 14.1376 31.3634 20.2054Z"
            fill="url(#paint8_radial_35_22374)"
        />
        <path
            d="M32.5108 20.2056C32.3775 20.2065 32.2454 20.1792 32.1234 20.1255C32.0013 20.0717 31.8921 19.9928 31.8027 19.8938C31.6628 19.7447 31.5667 19.56 31.5247 19.36C31.4827 19.1599 31.4965 18.9521 31.5645 18.7594C31.6522 18.5035 31.7938 18.2694 31.9799 18.0731C31.7737 18.0268 31.5599 18.0256 31.3531 18.0695C31.1463 18.1134 30.9515 18.2015 30.7819 18.3276C30.7254 18.3686 30.6552 18.3859 30.5862 18.3758C30.5172 18.3658 30.4548 18.3291 30.4125 18.2737C30.3701 18.2183 30.3511 18.1485 30.3595 18.0792C30.3679 18.01 30.403 17.9468 30.4574 17.9031C30.7427 17.692 31.0783 17.5591 31.4308 17.5175C31.7832 17.4759 32.1405 17.527 32.4672 17.6658C32.6572 17.5386 32.8683 17.4462 33.0908 17.3931C33.6598 17.2731 34.2925 17.4222 34.8261 17.8004C34.8812 17.8423 34.9179 17.904 34.9285 17.9724C34.939 18.0409 34.9226 18.1107 34.8826 18.1673C34.8427 18.2239 34.7823 18.2627 34.7143 18.2757C34.6463 18.2886 34.5758 18.2746 34.5179 18.2367C34.1116 17.9485 33.6189 17.8285 33.1998 17.9167C33.1322 17.9314 33.0661 17.9528 33.0026 17.9803C33.2316 18.1676 33.4017 18.4169 33.4925 18.6985C33.5552 18.8953 33.5675 19.1047 33.5283 19.3075C33.4891 19.5103 33.3996 19.7 33.268 19.8593C33.1744 19.9657 33.0593 20.0512 32.9304 20.1103C32.8015 20.1693 32.6617 20.2006 32.5199 20.202L32.5108 20.2056ZM32.5217 18.2967C32.3192 18.4641 32.1641 18.6816 32.0718 18.9275C32.0322 19.0304 32.023 19.1423 32.045 19.2503C32.0671 19.3582 32.1196 19.4575 32.1963 19.5366C32.2369 19.5802 32.2862 19.615 32.341 19.6386C32.3957 19.6622 32.4548 19.6742 32.5144 19.6738C32.5813 19.6731 32.6473 19.6584 32.708 19.6305C32.7688 19.6026 32.823 19.5623 32.8671 19.512C32.9389 19.4222 32.9871 19.3159 33.0073 19.2027C33.0274 19.0894 33.019 18.973 32.9826 18.8639C32.9006 18.6255 32.7375 18.4234 32.5217 18.293V18.2967Z"
            fill="url(#paint9_radial_35_22374)"
        />
        <path
            d="M13.1482 12.2818C12.9673 12.2746 12.7951 12.2021 12.6635 12.0778C12.5319 11.9534 12.4499 11.7856 12.4325 11.6054C12.4151 11.4252 12.4635 11.2448 12.5689 11.0975C12.6742 10.9503 12.8294 10.8462 13.0055 10.8045L13.0459 10.7952C14.2559 10.5068 15.913 10.1127 17.9241 10.1897C19.9352 10.2668 20.851 10.5584 22.4979 11.0927L22.781 11.1836C22.9634 11.2493 23.1131 11.3832 23.1989 11.557C23.2846 11.7309 23.2996 11.9312 23.2407 12.1159C23.1818 12.3006 23.0536 12.4552 22.883 12.5473C22.7125 12.6394 22.5128 12.6619 22.3261 12.6098L22.0421 12.5189C20.4245 12.0021 19.6815 11.7598 17.8666 11.6903C16.0517 11.6208 14.5166 11.9886 13.3875 12.2564L13.3471 12.2658C13.2818 12.2801 13.2149 12.2855 13.1482 12.2818Z"
            fill="#DD306E"
        />
        <path
            d="M8.56567 15.3099C8.58893 15.4019 8.5926 15.4978 8.57644 15.5914C8.56029 15.685 8.52466 15.7741 8.47188 15.853C8.41909 15.9319 8.35033 15.9989 8.27002 16.0495C8.18972 16.1002 8.09968 16.1334 8.00572 16.1471L7.71665 16.188L6.97399 16.2953C6.89754 16.306 6.8196 16.2957 6.74862 16.2653C6.67765 16.2349 6.61635 16.1856 6.57139 16.1229C6.52643 16.0601 6.49951 15.9862 6.49356 15.9093C6.48762 15.8323 6.50287 15.7551 6.53766 15.6862C6.70424 15.3521 6.90597 15.0367 7.13943 14.7454C7.43213 14.3818 7.6403 14.1291 7.873 14.1518C8.17752 14.1809 8.3875 14.669 8.51931 15.1444C8.53749 15.1999 8.55204 15.2553 8.56567 15.3099Z"
            fill="#FFF5F9"
        />
        <path
            d="M8.00559 16.1489L7.71652 16.1898C7.62774 16.0946 7.56865 15.9756 7.5465 15.8473C7.52435 15.7191 7.5401 15.5871 7.59182 15.4677C7.64354 15.3482 7.72898 15.2464 7.83767 15.1748C7.94636 15.1032 8.07359 15.0649 8.20376 15.0645C8.31506 15.0641 8.42459 15.0923 8.52191 15.1463C8.53737 15.2017 8.55191 15.2581 8.56555 15.3126C8.58866 15.4046 8.59222 15.5004 8.57599 15.5939C8.55976 15.6873 8.52411 15.7763 8.47134 15.8552C8.41857 15.934 8.34985 16.0008 8.26963 16.0514C8.1894 16.102 8.09945 16.1352 8.00559 16.1489Z"
            fill="#0F0F0F"
        />
        <path
            d="M9.74788 10.8484L13.0272 12.4828C13.1849 12.5614 13.1754 12.7894 13.0118 12.8547C11.6242 13.4082 10.4577 14.4036 9.69266 15.6868L9.65122 15.7563C9.55864 15.9116 9.32642 15.8862 9.26959 15.7145L8.1243 12.2555C7.79906 11.2732 8.82178 10.3868 9.74788 10.8484Z"
            fill="url(#paint10_radial_35_22374)"
        />
        <path
            d="M9.74788 10.8484L13.0272 12.4828C13.1849 12.5614 13.1754 12.7894 13.0118 12.8547C11.6242 13.4082 10.4577 14.4036 9.69266 15.6868L9.65122 15.7563C9.55864 15.9116 9.32642 15.8862 9.26959 15.7145L8.1243 12.2555C7.79906 11.2732 8.82178 10.3868 9.74788 10.8484Z"
            fill="url(#paint11_linear_35_22374)"
            fill-opacity="0.4"
        />
        <path
            fill-rule="evenodd"
            clip-rule="evenodd"
            d="M12.639 9.14538C12.3904 8.47365 12.2766 7.75954 12.304 7.04383C12.3314 6.32811 12.4995 5.62481 12.7988 4.97407C13.098 4.32333 13.5225 3.7379 14.0479 3.2512C14.5734 2.76451 15.1896 2.38608 15.8613 2.13752C16.5331 1.88896 17.2472 1.77514 17.9629 1.80257C18.6786 1.82999 19.3819 1.99811 20.0327 2.29734C20.6834 2.59657 21.2688 3.02103 21.7555 3.54651C22.2422 4.07199 22.6206 4.68818 22.8692 5.35991C23.1178 6.03164 23.2316 6.74574 23.2042 7.46146C23.1767 8.17717 23.0086 8.88048 22.7094 9.53122C22.4102 10.182 21.9857 10.7674 21.4602 11.2541C21.1376 11.5528 20.7809 11.8108 20.3981 12.023C19.668 11.8486 18.8119 11.7317 17.894 11.6965C16.7831 11.654 15.7534 11.7377 14.9215 11.9135C14.4904 11.6515 14.0968 11.3304 13.7526 10.9588C13.2659 10.4333 12.8875 9.81711 12.639 9.14538Z"
            fill="#1C68F3"
        />
        <path
            d="M17.7235 8.03249C17.7033 8.03172 17.6823 8.0261 17.6644 8.01577L16.0787 7.14749C16.0457 7.12984 16.0218 7.09905 16.0126 7.06304C16.0034 7.02703 16.0096 6.98873 16.0292 6.95671L17.7513 4.26281C17.777 4.22236 17.8222 4.19904 17.8703 4.20088C17.9184 4.20272 17.9617 4.22944 17.9842 4.27173L19.4951 7.08951C19.5132 7.122 19.5155 7.1616 19.5036 7.1968C19.4916 7.23199 19.4655 7.26086 19.4311 7.27593L17.7837 8.02035C17.765 8.02927 17.7437 8.03327 17.7235 8.03249Z"
            fill="white"
        />
        <path
            d="M17.6366 10.3019C17.5904 10.3001 17.5481 10.2744 17.5255 10.235L16.0065 7.62601C15.9757 7.57376 15.9841 7.50759 16.0262 7.46391C16.0684 7.42023 16.1343 7.41023 16.1871 7.4402L17.7142 8.27734L19.3007 7.56335C19.3556 7.53847 19.4206 7.55349 19.4593 7.60026C19.498 7.64704 19.5012 7.71365 19.4665 7.7634L17.7525 10.2446C17.726 10.2822 17.6828 10.3036 17.6366 10.3019Z"
            fill="white"
            fill-opacity="0.7"
        />
        <defs>
            <radialGradient
                id="paint0_radial_35_22374"
                cx="0"
                cy="0"
                r="1"
                gradient-units="userSpaceOnUse"
                gradient-transform="translate(10.7828 29.8738) rotate(90) scale(2.57205 3.30608)">
                <stop stop-color="#FFD1E1" />
                <stop offset="1" stop-color="#FFB2CE" />
            </radialGradient>
            <linearGradient
                id="paint1_linear_35_22374"
                x1="10.7828"
                y1="27.3018"
                x2="10.7828"
                y2="32.4459"
                gradient-units="userSpaceOnUse">
                <stop stop-color="#F6528F" />
                <stop offset="1" stop-color="#F6528F" stop-opacity="0" />
            </linearGradient>
            <radialGradient
                id="paint2_radial_35_22374"
                cx="0"
                cy="0"
                r="1"
                gradient-units="userSpaceOnUse"
                gradient-transform="translate(24.6002 29.5506) rotate(90) scale(2.89339 3.69241)">
                <stop stop-color="#FFD1E1" />
                <stop offset="1" stop-color="#FFB2CE" />
            </radialGradient>
            <linearGradient
                id="paint3_linear_35_22374"
                x1="24.6002"
                y1="26.6572"
                x2="24.6002"
                y2="32.444"
                gradient-units="userSpaceOnUse">
                <stop stop-color="#F6528F" />
                <stop offset="1" stop-color="#F6528F" stop-opacity="0" />
            </linearGradient>
            <radialGradient
                id="paint4_radial_35_22374"
                cx="0"
                cy="0"
                r="1"
                gradient-units="userSpaceOnUse"
                gradient-transform="translate(7.72966 12.3239) rotate(52.4597) scale(1.40566 1.1082)">
                <stop stop-color="#FFD1E1" />
                <stop offset="1" stop-color="#FFB2CE" />
            </radialGradient>
            <linearGradient
                id="paint5_linear_35_22374"
                x1="9.10393"
                y1="13.8945"
                x2="7.06415"
                y2="11.9428"
                gradient-units="userSpaceOnUse">
                <stop stop-color="#F6528F" />
                <stop offset="1" stop-color="#F6528F" stop-opacity="0" />
            </linearGradient>
            <radialGradient
                id="paint6_radial_35_22374"
                cx="0"
                cy="0"
                r="1"
                gradient-units="userSpaceOnUse"
                gradient-transform="translate(3.8814 20.9801) rotate(174.364) scale(1.48759 1.31246)">
                <stop stop-color="#FFD1E1" />
                <stop offset="1" stop-color="#FFB2CE" />
            </radialGradient>
            <linearGradient
                id="paint7_linear_35_22374"
                x1="4.44628"
                y1="21.3289"
                x2="2.401"
                y2="21.3796"
                gradient-units="userSpaceOnUse">
                <stop stop-color="#F6528F" />
                <stop offset="1" stop-color="#F6528F" stop-opacity="0" />
            </linearGradient>
            <radialGradient
                id="paint8_radial_35_22374"
                cx="0"
                cy="0"
                r="1"
                gradient-units="userSpaceOnUse"
                gradient-transform="translate(17.7596 20.206) rotate(90) scale(10.9866 13.6038)">
                <stop stop-color="#FFD1E1" />
                <stop offset="1" stop-color="#FFB2CE" />
            </radialGradient>
            <radialGradient
                id="paint9_radial_35_22374"
                cx="0"
                cy="0"
                r="1"
                gradient-units="userSpaceOnUse"
                gradient-transform="translate(32.6446 18.7791) rotate(90) scale(1.42655 2.28703)">
                <stop stop-color="#FFD1E1" />
                <stop offset="1" stop-color="#FFB2CE" />
            </radialGradient>
            <radialGradient
                id="paint10_radial_35_22374"
                cx="0"
                cy="0"
                r="1"
                gradient-units="userSpaceOnUse"
                gradient-transform="translate(9.82685 12.2384) rotate(52.4597) scale(1.51332 1.19308)">
                <stop stop-color="#FFD1E1" />
                <stop offset="1" stop-color="#FFB2CE" />
            </radialGradient>
            <linearGradient
                id="paint11_linear_35_22374"
                x1="11.3064"
                y1="13.9293"
                x2="9.11037"
                y2="11.8281"
                gradient-units="userSpaceOnUse">
                <stop stop-color="#F6528F" />
                <stop offset="1" stop-color="#F6528F" stop-opacity="0" />
            </linearGradient>
        </defs>
    </g>
</svg>

<svg xmlns="http://www.w3.org/2000/svg" viewBox="0 0 37 36">
    <path fill="url(#Savings_svg__a)" d="M14.089 30.044c-2.513-.383-4.785-1.356-6.612-2.742.109.154.182.33.215.515l.653 3.914a.853.853 0 0 0 .84.715h3.455a.854.854 0 0 0 .842-.72l.211-1.324a.427.427 0 0 1 .396-.358Z"/>
    <path fill="url(#Savings_svg__b)" fill-opacity=".4" d="M14.089 30.044c-2.513-.383-4.785-1.356-6.612-2.742.109.154.182.33.215.515l.653 3.914a.853.853 0 0 0 .84.715h3.455a.854.854 0 0 0 .842-.72l.211-1.324a.427.427 0 0 1 .396-.358Z"/>
    <path fill="url(#Savings_svg__c)" d="m20.999 30.03-.091.013c2.88-.445 5.446-1.662 7.385-3.386-.111.102-.225.2-.34.296a1.284 1.284 0 0 0-.447.768l-.669 4.009a.854.854 0 0 1-.84.714h-3.455a.853.853 0 0 1-.842-.72l-.215-1.339a.423.423 0 0 0-.486-.354Z"/>
    <path fill="url(#Savings_svg__d)" fill-opacity=".4" d="m20.999 30.03-.091.013c2.88-.445 5.446-1.662 7.385-3.386-.111.102-.225.2-.34.296a1.284 1.284 0 0 0-.447.768l-.669 4.009a.854.854 0 0 1-.84.714h-3.455a.853.853 0 0 1-.842-.72l-.215-1.339a.423.423 0 0 0-.486-.354Z"/>
    <path fill="url(#Savings_svg__e)" d="m7.656 11.033 3.046 1.518a.19.19 0 0 1-.014.345 6.313 6.313 0 0 0-3.083 2.631l-.038.065a.196.196 0 0 1-.355-.04L6.148 12.34c-.302-.913.648-1.736 1.508-1.307Z"/>
    <path fill="url(#Savings_svg__f)" fill-opacity=".4" d="m7.656 11.033 3.046 1.518a.19.19 0 0 1-.014.345 6.313 6.313 0 0 0-3.083 2.631l-.038.065a.196.196 0 0 1-.355-.04L6.148 12.34c-.302-.913.648-1.736 1.508-1.307Z"/>
    <path fill="url(#Savings_svg__g)" d="M2.401 20.05c0-.767.75-1.388 1.676-1.388h.739c.925 0 1.675.621 1.675 1.387v1.862c0 .766-.75 1.387-1.675 1.387h-.74c-.925 0-1.675-.62-1.675-1.387v-1.862Z"/>
    <path fill="url(#Savings_svg__h)" fill-opacity=".4" d="M2.401 20.05c0-.767.75-1.388 1.676-1.388h.739c.925 0 1.675.621 1.675 1.387v1.862c0 .766-.75 1.387-1.675 1.387h-.74c-.925 0-1.675-.62-1.675-1.387v-1.862Z"/>
    <path fill="url(#Savings_svg__i)" d="M31.363 20.205c0 6.068-6.09 10.372-13.603 10.372-7.514 0-13.604-3.405-13.604-10.372 0-7.282 6.09-10.247 13.604-10.247 7.513 0 13.603 4.18 13.603 10.247Z"/>
    <path fill="url(#Savings_svg__j)" d="M32.51 20.206a.946.946 0 0 1-.707-.312 1.115 1.115 0 0 1-.239-1.135c.088-.256.23-.49.416-.686a1.469 1.469 0 0 0-1.198.255.267.267 0 0 1-.325-.425 2.038 2.038 0 0 1 2.01-.237c.19-.127.401-.22.624-.273.569-.12 1.201.03 1.735.407a.268.268 0 0 1-.308.437c-.406-.288-.9-.409-1.318-.32a1.067 1.067 0 0 0-.197.063c.229.188.399.437.49.718a1.234 1.234 0 0 1-.225 1.161 1.01 1.01 0 0 1-.748.343l-.01.004Zm.012-1.91a1.504 1.504 0 0 0-.45.631.577.577 0 0 0 .124.61.43.43 0 0 0 .318.137.475.475 0 0 0 .353-.162.69.69 0 0 0 .116-.648 1.076 1.076 0 0 0-.461-.571v.004Z"/>
    <path fill="#DD306E" d="M13.148 12.282a.75.75 0 0 1-.143-1.477l.04-.01c1.21-.288 2.868-.682 4.88-.605 2.01.077 2.926.368 4.573.903l.283.09a.75.75 0 0 1-.455 1.427l-.284-.091c-1.618-.517-2.36-.76-4.175-.829-1.815-.07-3.35.299-4.48.566l-.04.01a.739.739 0 0 1-.199.016Z"/>
    <path fill="#FFF5F9" d="M8.566 15.31a.678.678 0 0 1-.56.837l-.29.041-.742.107a.423.423 0 0 1-.436-.609 5.25 5.25 0 0 1 .601-.94c.293-.364.501-.617.734-.594.305.029.514.517.646.992.018.056.033.111.047.166Z"/>
    <path fill="#0F0F0F" d="m8.006 16.149-.29.04a.669.669 0 0 1 .806-1.043l.044.167a.678.678 0 0 1-.56.836Z"/>
    <path fill="url(#Savings_svg__k)" d="m9.748 10.848 3.28 1.635a.204.204 0 0 1-.016.372 6.796 6.796 0 0 0-3.32 2.832l-.04.07a.211.211 0 0 1-.382-.043l-1.146-3.459c-.325-.982.698-1.868 1.624-1.407Z"/>
    <path fill="url(#Savings_svg__l)" fill-opacity=".4" d="m9.748 10.848 3.28 1.635a.204.204 0 0 1-.016.372 6.796 6.796 0 0 0-3.32 2.832l-.04.07a.211.211 0 0 1-.382-.043l-1.146-3.459c-.325-.982.698-1.868 1.624-1.407Z"/>
    <path fill="#1C68F3" fill-rule="evenodd" d="M12.639 9.145a5.454 5.454 0 1 1 7.76 2.878 13.094 13.094 0 0 0-2.505-.326c-1.11-.043-2.14.04-2.972.217a5.455 5.455 0 0 1-2.283-2.769Z" clip-rule="evenodd"/>
    <path fill="#fff" d="M17.724 8.032a.13.13 0 0 1-.06-.016l-1.585-.869a.133.133 0 0 1-.066-.084.138.138 0 0 1 .016-.106l1.722-2.694a.134.134 0 0 1 .12-.062.134.134 0 0 1 .113.07l1.511 2.819a.134.134 0 0 1-.064.186l-1.647.744a.13.13 0 0 1-.06.012Z"/>
    <path fill="#fff" fill-opacity=".7" d="M17.637 10.302a.135.135 0 0 1-.111-.067l-1.52-2.609a.135.135 0 0 1 .02-.162.132.132 0 0 1 .161-.024l1.527.837 1.587-.714a.135.135 0 0 1 .166.2l-1.714 2.482a.135.135 0 0 1-.116.057Z"/>
    <defs>
        <radialGradient id="Savings_svg__a" cx="0" cy="0" r="1">
            <stop stop-color="#FFD1E1"/>
            <stop offset="1" stop-color="#FFB2CE"/>
        </radialGradient>
        <radialGradient id="Savings_svg__c" cx="0" cy="0" r="1">
            <stop stop-color="#FFD1E1"/>
            <stop offset="1" stop-color="#FFB2CE"/>
        </radialGradient>
        <radialGradient id="Savings_svg__e" cx="0" cy="0" r="1">
            <stop stop-color="#FFD1E1"/>
            <stop offset="1" stop-color="#FFB2CE"/>
        </radialGradient>
        <radialGradient id="Savings_svg__g" cx="0" cy="0" r="1">
            <stop stop-color="#FFD1E1"/>
            <stop offset="1" stop-color="#FFB2CE"/>
        </radialGradient>
        <radialGradient id="Savings_svg__i" cx="0" cy="0" r="1">
            <stop stop-color="#FFD1E1"/>
            <stop offset="1" stop-color="#FFB2CE"/>
        </radialGradient>
        <radialGradient id="Savings_svg__j" cx="0" cy="0" r="1">
            <stop stop-color="#FFD1E1"/>
            <stop offset="1" stop-color="#FFB2CE"/>
        </radialGradient>
        <radialGradient id="Savings_svg__k" cx="0" cy="0" r="1">
            <stop stop-color="#FFD1E1"/>
            <stop offset="1" stop-color="#FFB2CE"/>
        </radialGradient>
        <linearGradient id="Savings_svg__b" x1="10.783" x2="10.783" y1="27.302" y2="32.446">
            <stop stop-color="#F6528F"/>
            <stop offset="1" stop-color="#F6528F" stop-opacity="0"/>
        </linearGradient>
        <linearGradient id="Savings_svg__d" x1="24.6" x2="24.6" y1="26.657" y2="32.444">
            <stop stop-color="#F6528F"/>
            <stop offset="1" stop-color="#F6528F" stop-opacity="0"/>
        </linearGradient>
        <linearGradient id="Savings_svg__f" x1="9.104" x2="7.064" y1="13.895" y2="11.943">
            <stop stop-color="#F6528F"/>
            <stop offset="1" stop-color="#F6528F" stop-opacity="0"/>
        </linearGradient>
        <linearGradient id="Savings_svg__h" x1="4.446" x2="2.401" y1="21.329" y2="21.38">
            <stop stop-color="#F6528F"/>
            <stop offset="1" stop-color="#F6528F" stop-opacity="0"/>
        </linearGradient>
        <linearGradient id="Savings_svg__l" x1="11.306" x2="9.11" y1="13.929" y2="11.828">
            <stop stop-color="#F6528F"/>
            <stop offset="1" stop-color="#F6528F" stop-opacity="0"/>
        </linearGradient>
    </defs>
</svg>
